instagram-14.svg

<svg xmlns="http://www.w3.org/2000/svg" width="24" height="24" viewBox="0 0 24 24"><path d="M14.829 6.302c-.738-.034-.96-.04-2.829-.04s-2.09.007-2.828.04c-1.899.087-2.783.986-2.87 2.87-.033.738-.041.959-.041 2.828s.008 2.09.041 2.829c.087 1.879.967 2.783 2.87 2.87.737.033.959.041 2.828.041 1.87 0 2.091-.007 2.829-.041 1.899-.086 2.782-.988 2.87-2.87.033-.738.04-.96.04-2.829s-.007-2.09-.04-2.828c-.088-1.883-.973-2.783-2.87-2.87zm-2.829 9.293c-1.985 0-3.595-1.609-3.595-3.595 0-1.985 1.61-3.594 3.595-3.594s3.595 1.609 3.595 3.594c0 1.985-1.61 3.595-3.595 3.595zm3.737-6.491c-.464 0-.84-.376-.84-.84 0-.464.376-.84.84-.84.464 0 .84.376.84.84 0 .463-.376.84-.84.84zm-1.404 2.896c0 1.289-1.045 2.333-2.333 2.333s-2.333-1.044-2.333-2.333c0-1.289 1.045-2.333 2.333-2.333s2.333 1.044 2.333 2.333zm-2.333-12c-6.627 0-12 5.373-12 12s5.373 12 12 12 12-5.373 12-12-5.373-12-12-12zm6.958 14.886c-.115 2.545-1.532 3.955-4.071 4.072-.747.034-.986.042-2.887.042s-2.139-.008-2.886-.042c-2.544-.117-3.955-1.529-4.072-4.072-.034-.746-.042-.985-.042-2.886 0-1.901.008-2.139.042-2.886.117-2.544 1.529-3.955 4.072-4.071.747-.035.985-.043 2.886-.043s2.14.008 2.887.043c2.545.117 3.957 1.532 4.071 4.071.034.747.042.985.042 2.886 0 1.901-.008 2.14-.042 2.886z"/></svg>

<?xml version="1.0" encoding="utf-8"?>
<!-- Generator: Adobe Illustrator 22.1.0, SVG Export Plug-In . SVG Version: 6.00 Build 0)  -->
<svg version="1.1" id="Layer_1" xmlns="http://www.w3.org/2000/svg" xmlns:xlink="http://www.w3.org/1999/xlink" x="0px" y="0px"
	 viewBox="0 0 24 24" style="enable-background:new 0 0 24 24;" xml:space="preserve">
<path d="M14.8,6.3c-0.7,0-1,0-2.8,0s-2.1,0-2.8,0c-1.9,0.1-2.8,1-2.9,2.9c0,0.7,0,1,0,2.8s0,2.1,0,2.8c0.1,1.9,1,2.8,2.9,2.9
	c0.7,0,1,0,2.8,0c1.9,0,2.1,0,2.8,0c1.9-0.1,2.8-1,2.9-2.9c0-0.7,0-1,0-2.8s0-2.1,0-2.8C17.6,7.3,16.7,6.4,14.8,6.3z M12,15.6
	c-2,0-3.6-1.6-3.6-3.6c0-2,1.6-3.6,3.6-3.6s3.6,1.6,3.6,3.6S14,15.6,12,15.6z M15.7,9.1c-0.5,0-0.8-0.4-0.8-0.8s0.4-0.8,0.8-0.8
	c0.5,0,0.8,0.4,0.8,0.8C16.6,8.7,16.2,9.1,15.7,9.1z M14.3,12c0,1.3-1,2.3-2.3,2.3s-2.3-1-2.3-2.3s1-2.3,2.3-2.3S14.3,10.7,14.3,12z
	 M12,0C5.4,0,0,5.4,0,12s5.4,12,12,12s12-5.4,12-12S18.6,0,12,0z M19,14.9c-0.1,2.5-1.5,4-4.1,4.1c-0.7,0-1,0-2.9,0s-2.1,0-2.9,0
	c-2.5-0.1-4-1.5-4.1-4.1c0-0.7,0-1,0-2.9s0-2.1,0-2.9c0.1-2.5,1.5-4,4.1-4.1c0.7,0,1,0,2.9,0s2.1,0,2.9,0c2.5,0.1,4,1.5,4.1,4.1
	c0,0.7,0,1,0,2.9S19,14.1,19,14.9z"/>
</svg>
